symbols/web/attach_money/materialsymbolsoutlined/attach_money_wght300grad200_40px.svg

<svg xmlns="http://www.w3.org/2000/svg" height="40" width="40"><path d="M18.625 35.125v-3.583q-2.417-.417-3.979-1.813-1.563-1.396-2.229-3.771l2.625-1.041q.666 2 1.958 3 1.292 1 3.292 1 1.875 0 3.187-.917 1.313-.917 1.313-2.667 0-1.666-1.188-2.687-1.187-1.021-3.979-1.896-3.417-1.042-4.917-2.688-1.5-1.645-1.5-3.895 0-2.417 1.563-3.917 1.562-1.5 3.854-1.875v-3.5h2.792v3.5q1.708.208 3.166 1.292 1.459 1.083 2.25 2.791l-2.583 1.167q-.625-1.208-1.604-1.917Q21.667 11 20.083 11q-1.791 0-2.916.854t-1.125 2.188q0 1.416.979 2.333.979.917 4.646 2.083 3 .959 4.479 2.604 1.479 1.646 1.437 4.188-.041 2.792-1.687 4.375-1.646 1.583-4.479 2v3.5Z"/></svg>

<svg xmlns="http://www.w3.org/2000/svg" height="40" width="40"><path d="M18.625 35.125V31.542Q16.208 31.125 14.646 29.729Q13.083 28.333 12.417 25.958L15.042 24.917Q15.708 26.917 17 27.917Q18.292 28.917 20.292 28.917Q22.167 28.917 23.479 28Q24.792 27.083 24.792 25.333Q24.792 23.667 23.604 22.646Q22.417 21.625 19.625 20.75Q16.208 19.708 14.708 18.062Q13.208 16.417 13.208 14.167Q13.208 11.75 14.771 10.25Q16.333 8.75 18.625 8.375V4.875H21.417V8.375Q23.125 8.583 24.583 9.667Q26.042 10.75 26.833 12.458L24.25 13.625Q23.625 12.417 22.646 11.708Q21.667 11 20.083 11Q18.292 11 17.167 11.854Q16.042 12.708 16.042 14.042Q16.042 15.458 17.021 16.375Q18 17.292 21.667 18.458Q24.667 19.417 26.146 21.062Q27.625 22.708 27.583 25.25Q27.542 28.042 25.896 29.625Q24.25 31.208 21.417 31.625V35.125Z"/></svg>
